public/icons/photo-gallery-blueish.svg

<svg width="17" height="17" xmlns="http://www.w3.org/2000/svg"><defs><filter id="a"><feColorMatrix in="SourceGraphic" values="0 0 0 0 0.070588 0 0 0 0 0.317647 0 0 0 0 0.952941 0 0 0 1.000000 0"/></filter></defs><g filter="url(#a)" fill="none" fill-rule="evenodd"><g transform="translate(1 1)"><path d="M12.25 15.25h-9c-1.657 0-3-1.343-3-3v-9c0-1.657 1.343-3 3-3h9c1.657 0 3 1.343 3 3v9c0 1.657-1.343 3-3 3z" stroke="#000" stroke-linejoin="round"/><circle fill="#000" fill-rule="nonzero" cx="10.75" cy="4.75" r="1.25"/><path d="M1.1285 14.3715L6.893 8.607c.473-.473 1.2405-.473 1.7135 0l5.7645 5.7645" stroke="#000" stroke-linejoin="round"/></g></g></svg>

<?xml version="1.0" encoding="UTF-8"?>
<svg width="17px" height="17px" viewBox="0 0 17 17" version="1.1" xmlns="http://www.w3.org/2000/svg" xmlns:xlink="http://www.w3.org/1999/xlink">
    <title>icons8-photo-gallery(1)</title>
    <defs>
        <filter id="filter-1">
            <feColorMatrix in="SourceGraphic" type="matrix" values="0 0 0 0 0.070588 0 0 0 0 0.317647 0 0 0 0 0.952941 0 0 0 1.000000 0"></feColorMatrix>
        </filter>
    </defs>
    <g id="Page-1" stroke="none" stroke-width="1" fill="none" fill-rule="evenodd">
        <g filter="url(#filter-1)" id="icons8-photo-gallery(1)">
            <g transform="translate(1.000000, 1.000000)">
                <path d="M12.25,15.25 L3.25,15.25 C1.593,15.25 0.25,13.907 0.25,12.25 L0.25,3.25 C0.25,1.593 1.593,0.25 3.25,0.25 L12.25,0.25 C13.907,0.25 15.25,1.593 15.25,3.25 L15.25,12.25 C15.25,13.907 13.907,15.25 12.25,15.25 Z" id="Path" stroke="#000000" stroke-linejoin="round"></path>
                <circle id="Oval" fill="#000000" fill-rule="nonzero" cx="10.75" cy="4.75" r="1.25"></circle>
                <path d="M1.1285,14.3715 L6.893,8.607 C7.366,8.134 8.1335,8.134 8.6065,8.607 L14.371,14.3715" id="Path" stroke="#000000" stroke-linejoin="round"></path>
            </g>
        </g>
    </g>
</svg>
